X: 14443
T: Galway, The
R: reel
M: 4/4
K: Gmajor
B2|AGEG DG, (3B,CD|BAGA BedB|AGED (3B,CD A,D|B,A,(3A,A,A, B,E{G}ED|
E2 EF GEDB,|D2 B,E DG,B,D|EDEG DEGA|(3Bcd AF G2:|
Bc|dG (3GGG FGDC|B,G,B,D GBdg|ec (3ccc AGFE|DFAd fed^c|
dG(3GGG FGDC|B,G,B,D GBdg|ec (3ccc efge|dBBA G2:|

